dist/assets/img/instruction/05.svg

<svg width="97" height="70" viewBox="0 0 97 70" fill="none" xmlns="http://www.w3.org/2000/svg">
<path opacity="0.05" d="M23.3383 0.846872C28.118 0.846872 32.2297 2.01953 35.6734 4.36484C39.1469 6.71015 41.8188 10.3023 43.6891 15.1414C45.5891 19.9508 46.5391 26.6602 46.5391 35.2695C46.5391 43.968 45.5742 50.7367 43.6445 55.5758C41.7445 60.4148 39.1766 63.9773 35.9406 66.2633C32.7047 68.5195 28.6227 69.6477 23.6945 69.6477C18.7664 69.6477 14.625 68.5047 11.2703 66.2187C7.91563 63.9328 5.28828 60.4594 3.38828 55.7984C1.48828 51.1375 0.538281 44.5023 0.538281 35.893C0.538281 23.8695 2.39375 15.1562 6.10469 9.75312C10.2313 3.81562 15.9758 0.846872 23.3383 0.846872ZM23.65 12.6922C21.5422 12.6922 19.6719 13.375 18.0391 14.7406C16.4063 16.0766 15.1594 18.3922 14.2984 21.6875C13.4375 24.9828 13.007 29.807 13.007 36.1602C13.007 44.443 13.9867 50.1727 15.9461 53.3492C17.9352 56.4961 20.5031 58.0695 23.65 58.0695C26.6781 58.0695 29.0828 56.5703 30.8641 53.5719C33.0313 49.95 34.1148 43.8937 34.1148 35.4031C34.1148 26.7937 33.1352 20.8562 31.1758 17.5906C29.2461 14.325 26.7375 12.6922 23.65 12.6922ZM65.2636 2.49453H95.9456V13.9836H74.5706L71.8987 25.918C72.6409 25.7102 73.3683 25.5617 74.0808 25.4727C74.7933 25.3539 75.4761 25.2945 76.1292 25.2945C82.0667 25.2945 86.9948 27.3281 90.9136 31.3953C94.862 35.4328 96.8362 40.6133 96.8362 46.9367C96.8362 53.3195 94.6542 58.7078 90.2901 63.1016C85.9558 67.4656 80.6714 69.6477 74.437 69.6477C68.8558 69.6477 64.0612 68.0594 60.0534 64.8828C56.0456 61.7062 53.4182 57.357 52.1714 51.8352H65.2636C66.2729 53.8836 67.594 55.4422 69.2268 56.5109C70.8893 57.55 72.7151 58.0695 74.7042 58.0695C77.4651 58.0695 79.8104 57.075 81.7401 55.0859C83.6698 53.0969 84.6347 50.5437 84.6347 47.4266C84.6347 44.3984 83.7292 41.9195 81.9183 39.9898C80.137 38.0305 77.9698 37.0508 75.4167 37.0508C74.0511 37.0508 72.7003 37.3922 71.3643 38.075C70.0581 38.7578 68.7667 39.782 67.4901 41.1477L57.337 38.8766L65.2636 2.49453Z" fill="#525252"/>
</svg>

<svg width="97" height="70" fill="none" xmlns="http://www.w3.org/2000/svg"><path opacity=".05" d="M23.338.847c4.78 0 8.892 1.173 12.335 3.518 3.474 2.345 6.146 5.937 8.016 10.776 1.9 4.81 2.85 11.52 2.85 20.129 0 8.698-.965 15.467-2.895 20.306-1.9 4.839-4.467 8.401-7.703 10.687-3.236 2.256-7.318 3.385-12.247 3.385-4.928 0-9.069-1.143-12.424-3.43-3.354-2.285-5.982-5.759-7.882-10.42-1.9-4.66-2.85-11.296-2.85-19.905 0-12.024 1.856-20.737 5.567-26.14C10.23 3.816 15.975.847 23.338.847zm.312 11.845c-2.108 0-3.978.683-5.61 2.049-1.634 1.336-2.88 3.651-3.742 6.947-.86 3.295-1.291 8.119-1.291 14.472 0 8.283.98 14.013 2.94 17.19 1.988 3.146 4.556 4.72 7.703 4.72 3.028 0 5.433-1.5 7.214-4.498 2.167-3.622 3.25-9.678 3.25-18.169 0-8.61-.979-14.547-2.938-17.812-1.93-3.266-4.438-4.899-7.526-4.899zM65.264 2.495h30.682v11.489H74.57l-2.672 11.934c.742-.208 1.47-.356 2.182-.445a12.462 12.462 0 012.048-.178c5.938 0 10.866 2.033 14.785 6.1 3.948 4.038 5.922 9.218 5.922 15.542 0 6.383-2.182 11.77-6.546 16.165-4.334 4.364-9.619 6.546-15.853 6.546-5.581 0-10.376-1.589-14.384-4.765-4.007-3.177-6.635-7.526-7.882-13.048h13.093c1.009 2.049 2.33 3.607 3.963 4.676 1.662 1.039 3.488 1.558 5.477 1.558 2.761 0 5.106-.994 7.036-2.983 1.93-1.99 2.895-4.542 2.895-7.66 0-3.028-.906-5.507-2.717-7.436-1.781-1.96-3.948-2.94-6.501-2.94-1.366 0-2.717.342-4.053 1.025-1.306.683-2.597 1.707-3.874 3.073l-10.153-2.271 7.927-36.382z" fill="#525252"/></svg>
